X: 1
T: John Stensons #2
R: polka
Q:1/2=110
M: 4/4
L: 1/8
K: Dmaj
|:"D"d2 f2 e2 f2|"D"d2 f2 edBA|"D"d2 f2 e2 f2|"Em"g2 f2 "A"e4|
"D"d2 f2 e2 f2|"D"d2 f2 edBA|"Em"g4 f4|"Asus"e2 ef edBA:|
|:"D"a3 aa a3|"D" af2 e2 f3 |"D/C#"a3 a2 a3|"D/C#" af2 e2 f3|
"D"a3 aa a3| "D"af2 e2 f2|"Em"g4 f4|"Asus"e2 ef edBA:|